app/component-library/components/Icons/Icon/assets/connect.svg

<svg width="24" height="24" viewBox="0 0 24 24" fill="none" xmlns="http://www.w3.org/2000/svg">
<path d="M12.2814 14.3801C13.5958 14.3801 14.6614 13.3146 14.6614 12.0001C14.6614 10.6857 13.5958 9.62012 12.2814 9.62012C10.9669 9.62012 9.90137 10.6857 9.90137 12.0001C9.90137 13.3146 10.9669 14.3801 12.2814 14.3801Z" fill="currentColor"/>
<path d="M20.281 18.7498C20.121 18.7498 19.971 18.6998 19.831 18.5998C19.501 18.3498 19.431 17.8798 19.681 17.5498C20.891 15.9398 21.531 14.0198 21.531 11.9998C21.531 9.97978 20.891 8.05978 19.681 6.44978C19.431 6.11978 19.501 5.64978 19.831 5.39978C20.161 5.14978 20.631 5.21978 20.881 5.54978C22.291 7.41978 23.031 9.64978 23.031 11.9998C23.031 14.3498 22.291 16.5798 20.881 18.4498C20.731 18.6498 20.511 18.7498 20.281 18.7498Z" fill="currentColor"/>
<path d="M4.28125 18.7498C4.05125 18.7498 3.83125 18.6498 3.68125 18.4498C2.27125 16.5798 1.53125 14.3498 1.53125 11.9998C1.53125 9.64978 2.27125 7.41978 3.68125 5.54978C3.93125 5.21978 4.40125 5.14978 4.73125 5.39978C5.06125 5.64978 5.13125 6.11978 4.88125 6.44978C3.67125 8.05978 3.03125 9.97978 3.03125 11.9998C3.03125 14.0198 3.67125 15.9398 4.88125 17.5498C5.13125 17.8798 5.06125 18.3498 4.73125 18.5998C4.60125 18.6998 4.44125 18.7498 4.28125 18.7498Z" fill="currentColor"/>
<path d="M17.0813 16.3502C16.9213 16.3502 16.7713 16.3002 16.6313 16.2002C16.3013 15.9502 16.2313 15.4802 16.4813 15.1502C17.1713 14.2402 17.5313 13.1502 17.5313 12.0002C17.5313 10.8502 17.1713 9.76018 16.4813 8.85018C16.2313 8.52018 16.3013 8.05018 16.6313 7.80018C16.9613 7.55018 17.4313 7.62018 17.6813 7.95018C18.5613 9.13017 19.0313 10.5302 19.0313 12.0002C19.0313 13.4702 18.5613 14.8802 17.6813 16.0502C17.5313 16.2502 17.3113 16.3502 17.0813 16.3502Z" fill="currentColor"/>
<path d="M7.48125 16.3502C7.25125 16.3502 7.03125 16.2502 6.88125 16.0502C6.00125 14.8802 5.53125 13.4702 5.53125 12.0002C5.53125 10.5302 6.00125 9.12018 6.88125 7.95018C7.13125 7.62018 7.60125 7.55018 7.93125 7.80018C8.26125 8.05018 8.33125 8.52018 8.08125 8.85018C7.39125 9.76018 7.03125 10.8502 7.03125 12.0002C7.03125 13.1502 7.39125 14.2402 8.08125 15.1502C8.33125 15.4802 8.26125 15.9502 7.93125 16.2002C7.80125 16.3002 7.64125 16.3502 7.48125 16.3502Z" fill="currentColor"/>
</svg>

<svg xmlns="http://www.w3.org/2000/svg" width="24" height="24" viewBox="0 0 24 24" fill="none"><path d="M12.281 14.38a2.38 2.38 0 1 0 0-4.76 2.38 2.38 0 0 0 0 4.76zM20.281 18.75a.75.75 0 0 1-.6-1.2 9.17 9.17 0 0 0 1.85-5.55c0-2.02-.64-3.94-1.85-5.55a.75.75 0 0 1 1.2-.9c1.41 1.87 2.15 4.1 2.15 6.45 0 2.35-.74 4.58-2.15 6.45-.15.2-.37.3-.6.3zM4.281 18.75c-.23 0-.45-.1-.6-.3-1.41-1.87-2.15-4.1-2.15-6.45 0-2.35.74-4.58 2.15-6.45a.75.75 0 0 1 1.2.9A9.17 9.17 0 0 0 3.031 12c0 2.02.64 3.94 1.85 5.55a.75.75 0 0 1-.6 1.2zM17.081 16.35a.75.75 0 0 1-.6-1.2c.69-.91 1.05-2 1.05-3.15s-.36-2.24-1.05-3.15a.75.75 0 0 1 1.2-.9 6.73 6.73 0 0 1 1.35 4.05c0 1.47-.47 2.88-1.35 4.05-.15.2-.37.3-.6.3zM7.481 16.35c-.23 0-.45-.1-.6-.3A6.709 6.709 0 0 1 5.531 12c0-1.47.47-2.88 1.35-4.05a.75.75 0 0 1 1.2.9c-.69.91-1.05 2-1.05 3.15s.36 2.24 1.05 3.15a.75.75 0 0 1-.6 1.2z" fill="currentColor"/></svg>
